X:681
T:Bennachie Sunrise
C:Machlis
S:Anna Shepherd
Z:Nigel Gatherer
M:4/4
L:1/8
K:A
E2 cA B3 c | E2 cA BAFA | E2 cA Bcdf    |1 eccA BAFA :|
                                         2 eccA BAFE ||
Aaae  f4   | e>fec BAFE | Aaae  f3 e/f/ | A>fec f3 e :| 
<end>
<start>
